X:1
T:E' nato il Salvatore
T:Arrangemento: Dag Henning Liodden Sørbø Adattamento e riarrangiamento: Lele 2019 
T: Melodia: Carola tedesca del XVI secolo 
T:Testo: autore anonimo 
%%score [ 1 2 3 4 ]
L:1/8
Q:1/4=96
M:2/4
K:F
V:1 treble nm="Soprano" snm="S"
V:2 treble nm="Alto" snm="A"
V:3 treble nm="Tenor" snm="T"
V:4 bass nm="Bass" snm="B"
V:1
|:"F""^Andante" c4 |[M:4/4]"C/G" c2"F/A""C" c2"Bb" d2"F/A" c2 |"C" c4"Dm" A4 | %3
w: 1.~~~E'|na- to͜͜͜͜͜il Sal- va-|to- re|
w: 2.Ap-|pa- re nel- la|not- te|
w: 3.~An-|ge- li del tuo|cie- lo|
"Gm" B4"F/A" A2"Gm/Bb" G2 |"F/C" G2 F2-"C7" F2 E2 |"F" F6 z2 |[M:2/4]"C" c4 | %7
w: Di- o ce|lo- * do- *|nò|E'|
w: la nos- tra|po- * ve- er-|tà|Ap-|
w: Can- ta- no|glo- * ri- a͜ a|Te|Can-|
[M:4/4]"F" c2"C/E" c2"Bb" d2"C" c2 |"Am" c4"Dm7" A4 |"Gm" B4"F/A" A2"Gm/Bb" G2 | %10
w: na- to da Ma-|ri- a|El- la ce|
w: pa- re͜ ed è͜ un bam-|bi- no|Uo- mo che|
w: ta- no pa- ce͜ in|ter- ra|per chi ti͜ ac-|
"F/C" G2 F2-"C7" F2 E2 |"F" F4 z2 AA |"Gm" G2"Am" E2"Dm7" F2"G7" D2 |"C" (CD E2) z2"C/E" c2 | %14
w: lo _ po- or-|tò E- gli è|na- to͜ in mez- zo͜ a|no- * i Ge-|
w: so- of- fri- *|rà E- gli͜ è|na- to͜ in maz- zo͜ a|no- * i Ge-|
w: co- * glie in|sè Tu *|vie- ni͜ in mez- zo͜ a|no- * i Ge-|
"F" c2"C/E" c2"Bb" d2"C" c2 |"Am" c4"D7" A4 |"Gm" B4"D" A2"Gm" G2 |"F/A" G2 F2-"C7" F2 E2 | %18
w: sù, Si- gno- re|nos- tro|Noi cre- de-|re- * mo in|
w: sù fra- tel- lo|nos- tro|Noi spe- re-|re- * mo in|
w: sù che vi- vi͜ in|cie- lo|Fa che vi-|via- * mo in|
"F" F6 z2 :| %19
w: Te.|
w: Te.|
w: Te|
V:2
|: F4 |[M:4/4] E2 F2 F2 F2 | E4 F4 | G4 (FE) D2 | C4 B,4 | C6 z2 |[M:2/4] E4 | %7
[M:4/4] F2 (GA) B2 E2 | E4 F4 | G4 (FE) D2 | C4 C2- C2 | C4 z2 A,A, | D2 C2 C2 =B,2 | %13
 C2- C2 z2 E2 | F2 (GA) B2 E2 | E4 ^F4 | G2 (FE) D2 D2 | C4 C2 B,2 | C6 z2 :| %19
V:3
|: A4 |[M:4/4] (cB) A2 B2 c2 | c4 d4 | d4 c2 B2 | A4 G2- G2 | A6 z2 |[M:2/4] G4 | %7
w: 1.~~~E'|na- * to͜ il Sal- va-|to- re|Di- o ce|lo do- *|nò.|E'|
w: 2.Ap|pa- * re nel- la|not- te|la nos- tra|po- ver- *|tà.|Ap-|
w: 3.~An-|ge- * li del tuo|cie- lo|Can- ta- no|glo- ri- a-|Te.|Can-|
[M:4/4] AB c2 B2 c2 | c4 c2 d2 | d4 c2 B2 | A4 B2- B2 | A4 z2 AA | B2 A2 (AG) F2 | (EF G2) z2 G2 | %14
w: na- * to da Ma-|ri- a _|El- la ce|lo por- *|tò. E- gli͜ è|na- to͜ in mez- * zo͜ a|no- * i Ge-|
w: pa- * re͜ ed è͜ un bam-|bi- no _|Uol- mo che|sof- fri- *|rà. E- gli͜ è|na- to͜ in mez- * zo͜ a|no- * i Ge-|
w: ta- * no pa- ce͜ in|ter- ra _|per chi ti͜ ac|co- glie in|sè. Tu *|vie- ni͜ in mez- * zo͜ a|no * i Ge-|
 (AB) c2 B2 c2 | c4 c4 | (Bc) d2 (dc)(BG) | F4 G2 G2 | A6 z2 :| %19
w: sù * Si- gno- re|nos- tro|No- * i cre- * de- *|re- mo in|Te.|
w: sù * fra- tel- lo|nos- tro|No- * i spe- * re- *|re- mo in|Te.|
w: sù * che vi- vi͜ in|cie- lo|Fa * * che- * vi- *|via- mo in|Te.|
V:4
|: F,,4 |[M:4/4] G,,2 A,,2 B,,2 (A,,B,,) | C,4 D,4 | G,,4 A,,2 B,,2 | C,4 C,2- C,2 | F,,6 z2 | %6
[M:2/4] C,4 |[M:4/4] F,2 E,2 (F,D,)(C,B,,) | (A,,4 D,C,)(B,,A,,) | G,,4 A,,2 B,,2 | C,4 C,2- C,2 | %11
 F,,4 z2 A,,A,, | G,,2 A,,2 D,2 G,,2 | C,2- C,2 z2 C,2 | F,2 E,2 (F,D,)(C,B,,) | A,,4 D,4 | %16
 G,,4 ^F,,2 G,,2 | (A,,3 B,,) C,2 C,2 | F,,6 z2 :| %19

